X:21
M:3/2
L:1/8
Q:1/2=100
K:D
"6/4 in book"A2 | Bcd2c4BAF2 | GFEDC2E4A2 | Bcd2c4BAF2 | GFED A,2D4 ||
EF | GFEDE2A4EF | GFEDC2E4EF | GFEDF2A4Bc | dcBAd2D4 ||

